X: 72
T: No_64_Song_Used_in_Treatment_of_Sick_(m).krn
N: Derived from No_64_Song_Used_in_Treatment_of_Sick_(m).krn
%%abc-version 2.0
%%abcx-abcm2ps-target-version 5.9.1 (29 Sep 2008)
%%abc-creator hum2abc beta
%%abcx-conversion-date 2019/03/15 08:36:49
%%humdrum-veritas 3321896204
%%humdrum-veritas-data 1497527976
%%linebreak <none>
%%barnumbers 0
L: 1/4
M: 2/4
K: C clef=treble
[K:clef=treble][M:2/4]G2- | 
Gc | 
d2 | 
ed | 
c2 | 
d2 | 
cd | 
c2 ||  
[M:3/4]GEE | 
G2E | 
G2E | 
DC2- | 
C2E ||  
[M:2/4]D2- | 
DD | 
C2- | 
C2 | 
DC ||  
[M:3/4]D3 ||  
[M:2/4]C2- ||  
[M:3/4]C2D ||  
[M:2/4]CD ||  
[M:3/4]C3- ||  
[M:2/4]C2 | 
C2 | 
G2- | 
G2- ||  
[M:3/4]G3 ||  
[M:2/4]c3/G/ | 
c3/G//E// | 
E2- | 
E2 | 
G3/E/ | 
G3/E/ | 
GE/D/ | 
ED | 
C2- | 
C2 | 
C2 | 
G,2- | 
G,2 | 
DC | 
C2 | 
D2- | 
DC | 
C2 | 
DC ||  
[M:3/4]C3 ||  
[M:2/4]C2- | 
C2 |]  



